!!!SOCIAL_FUNCTION:	rain dance song
!!!PDT:	1957
!!!OTL: No_70_Rain_Dance_Song.krn
!!!LING_GROUP: Keresan
!!!LANG: Tone
!!!REG: Southwest
**kern
*staff1
=1-
*clefF4
*k[f#]
*M2/4
4A\
4A\
=2
4A\
8.A\L
16E\Jk
=3
*M3/4
(8.F#\L
16E\Jk)
4..E\
16C/
=4
(8.E/L
16C/Jk)
4..C/
16AA/
=5
*M2/4
(8.C/L
16AA/Jk)
8AA/
8r
=6
8C/L
16AA/L
16AA/JJ
8C/L
16AA/L
16AA/JJ
=7
*M3/4
16C/LL
16C/
16AA/
16AA/JJ
8EE/L
16AA/L
16AA/JJ
8AA/
8r
=8
*M3/8
16E/LK
8.C/
8C/J
=9
*M3/4
8.E\L
16E\Jk
8E\L
16E\L
16C\JJ
4E\
=10
*M2/4
16E/LK
(8C/
16AA/Jk)
16AA/LL
16EE/JJ
8r
=11
*M3/4
16E/LK
(8C/
16AA/Jk)
16AA/LL
16AA/J
8AA/J
8AA/
16r
16C/
=12
4E\
16E/LK
(8C/
16AA/Jk)
16C/LL
16C/J
8AA/J
=13
*M2/4
8C/L
8C/J
8.C/L
16AA/Jk
=14
8C/L
16C/L
16AA/JJ
8AA/L
8AA/J
=15
*M3/8
8.C/L
16E/L
16E/
16C/JJ
=16
*M2/4
4C/
8.AA/L
16AA/Jk
=17
2r
=18
2r
=19
2r
=20
2r
=21
2r
=22
2r
=23
2r
=24
2r
=25
2r
=26
2r
=27
2r
=28
2r
=29
*k[b-e-a-]
*M3/4
8B-\L
8B-\J
16B-\
16r
8B-\
16G\LL
16G\J
8G\J
=30
*M2/4
8B-\L
8B-\J
16B-\
16r
8B-\
=31
8G\L
8G\J
8G\L
8B-\J
=32
16B-\LL
16c\
16B-\
16G\JJ
8E-\L
8E-\J
=33
16E-/LK
8C/
16BB-/Jk
16BB-/LK
(8BB-/
16GG/Jk)
=34
16GG/LL
16GG/J
8GG/J
8GG/
8r
=35
8E-/L
16.BB-/L
32BB-/JJk
(16BB-/LL
16GG/J)
8GG/J
=36
8EE-/L
16GG/L
16GG/JJ
8GG/
8r
=37
8B-\L
8B-\J
8B-\L
16B-\L
16G\JJ
=38
*M3/4
8B-\L
8B-\J
8B-\L
(16B-\L
16G\JJ)
8G\
8r
=39
*M2/4
16G\LL
16G\J
8E-\J
16E-\LL
16E-\
16D\JJ
16r
=40
16G\LL
16G\J
8E-\J
16E-\LL
16E-\
16D\JJ
16r
=41
16B-\LL
16B-\
16G\
16G\JJ
16B-\LL
16B-\
16G\
16G\JJ
=42
16B-\LL
16B-\J
8G\J
8G\
8r
=43
16B-\LL
16B-\
16G\
16G\JJ
16E-\LL
16E-\
16D\
16D\JJ
=44
*M3/4
16BB-/LL
16C/
16BB-/
16C/JJ
16GG/LL
16BB-/J
8GG/J
16GG/LL
16GG/JJ
8r
=45
!!pagebreak:default
*M2/4
16E-\LL
16E-\J
8BB-\J
8BB-/L
16BB-/L
16GG/JJ
=46
*M5/8
8.GG/L
16EE-/K
8GG/
8GG/J
8r
=47
*M2/4
8B-\L
16c\L
16B-\JJ
16An\LL
16B-\J
8G\J
=48
*M5/8
16B-\LL
16B-\
16An\
16B-\
16G\
16G\J
8G\J
8r
=49
*M2/4
8B-\L
16G\L
16G\JJ
16E-\LL
16E-\
16D\
16D\JJ
=50
*M3/4
16BB-/LL
16E-/
16BB-/
16E-/JJ
16GG/LL
16BB-/J
8GG/J
8GG/
8r
=51
16E-\LL
16E-\J
8BB-\J
(16GG/LL
16BB-/J)
8GG/J
8.GG/L
16EE-/Jk
=52
16BB-/LL
16GG/J
8GG/J
16GG/LL
16GG/J
8GG/J
4r
==
*-
